flaticon/productivity-and-development/padlock.svg

<svg xmlns="http://www.w3.org/2000/svg" width="32" height="32" viewBox="0 0 24 24">
    <path d="M 19.375 7.304688 L 17.832031 7.304688 L 17.832031 4.054688 L 5.632812 4.054688 L 5.632812 7.304688 L 0 7.304688 L 0 16.550781 L 5.632812 16.550781 L 5.632812 19.945312 L 17.832031 19.945312 L 17.832031 16.550781 L 19.375 16.550781 C 21.925781 16.550781 24 14.476562 24 11.929688 C 24 9.378906 21.925781 7.304688 19.375 7.304688 Z M 6.652344 5.074219 L 16.808594 5.074219 L 16.808594 7.304688 L 6.652344 7.304688 Z M 1.019531 8.328125 L 16.808594 8.328125 L 16.808594 15.53125 L 1.019531 15.53125 Z M 16.808594 18.925781 L 6.652344 18.925781 L 6.652344 16.550781 L 16.808594 16.550781 Z M 19.375 15.53125 L 17.832031 15.53125 L 17.832031 8.328125 L 19.375 8.328125 C 21.363281 8.328125 22.980469 9.941406 22.980469 11.929688 C 22.980469 13.914062 21.363281 15.53125 19.375 15.53125 Z M 19.375 15.53125"/>
    <path d="M5.234375 9.910156C4.125 9.910156 3.21875 10.816406 3.21875 11.929688 3.21875 13.039062 4.125 13.945312 5.234375 13.945312 6.347656 13.945312 7.25 13.039062 7.25 11.929688 7.25 10.816406 6.347656 9.910156 5.234375 9.910156zM5.234375 12.925781C4.6875 12.925781 4.238281 12.476562 4.238281 11.929688 4.238281 11.378906 4.6875 10.933594 5.234375 10.933594 5.785156 10.933594 6.230469 11.378906 6.230469 11.929688 6.230469 12.476562 5.785156 12.925781 5.234375 12.925781zM11.832031 9.910156C10.71875 9.910156 9.816406 10.816406 9.816406 11.929688 9.816406 13.039062 10.71875 13.945312 11.832031 13.945312 12.945312 13.945312 13.847656 13.039062 13.847656 11.929688 13.847656 10.816406 12.945312 9.910156 11.832031 9.910156zM11.832031 12.925781C11.28125 12.925781 10.835938 12.476562 10.835938 11.929688 10.835938 11.378906 11.28125 10.933594 11.832031 10.933594 12.378906 10.933594 12.828125 11.378906 12.828125 11.929688 12.828125 12.476562 12.378906 12.925781 11.832031 12.925781zM11.832031 12.925781"/>
</svg>

<svg xmlns="http://www.w3.org/2000/svg" width="32" height="32" viewBox="0 0 24 24">
    <path d="M19.375 7.305h-1.543v-3.25h-12.2v3.25H0v9.246h5.633v3.394h12.199v-3.394h1.543A4.629 4.629 0 0 0 24 11.93a4.63 4.63 0 0 0-4.625-4.625zM6.652 5.075H16.81v2.23H6.652zM1.02 8.327h15.789v7.203H1.019zm15.789 10.598H6.652V16.55H16.81zm2.566-3.395h-1.543V8.328h1.543a3.606 3.606 0 0 1 3.605 3.602 3.608 3.608 0 0 1-3.605 3.601zm0 0"/>
    <path d="M5.234 9.91c-1.109 0-2.015.906-2.015 2.02a2.02 2.02 0 0 0 2.015 2.015 2.018 2.018 0 0 0 0-4.035zm0 3.016a1 1 0 0 1-.996-.996.995.995 0 1 1 .996.996zm0 0M11.832 9.91a2.018 2.018 0 0 0 0 4.035 2.018 2.018 0 0 0 0-4.035zm0 3.016a.995.995 0 1 1-.002-1.994.995.995 0 0 1 .002 1.994zm0 0"/>
</svg>
